src/home/img/open-source.svg

<svg height="450" viewBox="0 0 450 450" width="450" xmlns="http://www.w3.org/2000/svg"><g fill="#000" fill-rule="nonzero"><g transform="translate(64 72)"><path d="m101.058559 61.0671171v5.0450451c0 2.089726-1.6940581 3.7837837-3.7837842 3.7837837h-47.927928c-2.089726 0-3.7837837-1.6940577-3.7837837-3.7837837v-5.0450451c0-2.0897261 1.6940577-3.7837838 3.7837837-3.7837838h47.927928c2.0897261 0 3.7837842 1.6940577 3.7837842 3.7837838z" opacity=".4"/><path d="m4.84009009 67.8968468-3.57882883-3.5725225c-1.47334221-1.4769148-1.47334221-3.8676798 0-5.3445946l24.27927924-24.3990991-24.27927924-24.3959459c-1.47334221-1.47691481-1.47334221-3.86767981 0-5.34459461l3.57882883-3.57882883c1.47763918-1.47754119 3.87326172-1.47754119 5.35090091 0l30.6423423 30.64391894c1.4775412 1.4776392 1.4775412 3.8732617 0 5.3509009l-30.6423423 30.6407657c-1.47763919 1.4775412-3.87326173 1.4775412-5.35090091 0z"/></g><g transform="translate(110 181)"><path d="m224.464628 0h-177.1250003c-11.273731.03269225-20.4047613 9.15077083-20.4375 20.4085106v142.8595744h218.0000003v-142.8595744c-.032739-11.25773977-9.163769-20.37581835-20.4375-20.4085106zm-6.8125 136.056738h-163.5000003v-108.8453905h163.5000003z" opacity=".4"/><path d="m265.913617 177.050456h-103.322781c-.315347 8.450109-6.268573 13.649848-13.951942 13.649848h-25.909532c-7.964625 0-14.06274-7.451964-13.964727-13.649848h-101.94633713c-3.76564193 0-6.81829787 3.055622-6.81829787 6.824924v6.824924c.04446449 15.058732 12.22908 27.255188 27.2731915 27.299696h218.1855315c15.044112-.044508 27.228727-12.240964 27.273192-27.299696v-6.824924c0-3.769302-3.052656-6.824924-6.818298-6.824924zm-47.728085-150.1483283h-163.639149v109.1987843h163.639149zm-95.030027 79.4847713-4.819684 4.824368c-1.278724 1.280259-3.01322 1.999525-4.821815 1.999525s-3.543091-.719266-4.821815-1.999525l-24.8654801-24.8853791c-1.2790156-1.2799663-1.9975836-3.0161486-1.9975836-4.8265009 0-1.8103524.718568-3.5465347 1.9975836-4.826501l24.8399111-24.8853792c1.278724-1.2802585 3.013221-1.9995249 4.821815-1.9995249 1.808595 0 3.543092.7192664 4.821815 1.9995249l4.845253 4.8243682c1.279016 1.2799663 1.997584 3.0161486 1.997584 4.8265009 0 1.8103524-.718568 3.5465347-1.997584 4.826501l-15.234634 15.2366429 15.234634 15.2323772c1.279016 1.2799663 1.997584 3.0161486 1.997584 4.826501 0 1.810352-.718568 3.546535-1.997584 4.826501zm65.775268-20.0482143-24.86548 24.8768483c-1.278724 1.280258-3.013221 1.999525-4.821815 1.999525-1.808595 0-3.543092-.719267-4.821816-1.999525l-4.845252-4.824368c-1.279016-1.279967-1.997584-3.016149-1.997584-4.826501 0-1.8103528.718568-3.5465351 1.997584-4.8265014l15.234634-15.2366428-15.234634-15.2323773c-1.279016-1.2799663-1.997584-3.0161486-1.997584-4.826501s.718568-3.5465346 1.997584-4.8265009l4.819684-4.8243682c1.278723-1.2802586 3.01322-1.9995249 4.821815-1.9995249s3.543091.7192663 4.821815 1.9995249l24.861219 24.8853792c1.281278 1.277702 2.002914 3.0126134 2.006121 4.8229666.003186 1.8103533-.712318 3.5478074-1.989076 4.8300353z"/></g><g transform="translate(272 52)"><path d="m85.5000001 75.15c0 1.9606109-1.5949859 3.55-3.5625003 3.55h-7.125c-1.9675144 0-3.5624999-1.5893891-3.5624999-3.55v-3.55h-28.4999999v3.55c0 1.9606109-1.5949856 3.55-3.5625 3.55h-7.125c-1.9675144 0-3.5624999-1.5893891-3.5624999-3.55v-3.55h-28.50000001v21.3c0 3.9212217 3.18997115 7.1 7.12499998 7.1h99.74999993c3.935029 0 7.125-3.1787783 7.125-7.1v-21.3h-28.4999999zm26.4137109-34.0289687-10.075196-10.0398437c-1.336067-1.3322522-3.1486067-2.0811876-5.0387105-2.0811876h-79.5996092c-1.8897842 0-3.7022791.7475303-5.0387109 2.0789688l-10.07519525 10.0420625c-1.33612672 1.3317426-2.08628915 3.1378779-2.08628915 5.0210313v18.3579374h28.5v-3.55c0-1.9606108 1.5949856-3.55 3.5625-3.55h7.125c1.9675144 0 3.5625 1.5893892 3.5625 3.55v3.55h28.4999999v-3.55c0-1.9606108 1.5949855-3.55 3.5624999-3.55h7.125c1.9675144 0 3.5625002 1.5893892 3.5625002 3.55v3.55h28.5v-18.3601562c0-1.8823846-.750708-3.6876136-2.086289-5.0188125z" opacity=".4"/><path d="m74.3125 0h-35.625c-5.9025433 0-10.6875 4.82311429-10.6875 10.7727273v17.9545454h14.25v-14.3636363h28.5v14.3636363h14.25v-17.9545454c0-5.94961301-4.7849567-10.7727273-10.6875-10.7727273zm-35.625 57.4545455h-7.125c-1.9675144 0-3.5625 1.6077047-3.5625 3.590909v14.3636364c0 1.9832043 1.5949856 3.5909091 3.5625 3.5909091h7.125c1.9675144 0 3.5625-1.6077048 3.5625-3.5909091v-14.3636364c0-1.9832043-1.5949856-3.590909-3.5625-3.590909zm42.75 0h-7.125c-1.9675144 0-3.5625 1.6077047-3.5625 3.590909v14.3636364c0 1.9832043 1.5949856 3.5909091 3.5625 3.5909091h7.125c1.9675144 0 3.5625-1.6077048 3.5625-3.5909091v-14.3636364c0-1.9832043-1.5949856-3.590909-3.5625-3.590909z"/></g></g></svg>

<svg xmlns="http://www.w3.org/2000/svg" width="450" height="450" viewBox="0 0 450 450">
  <g fill="none" fill-rule="evenodd">
    <g fill="#000" fill-rule="nonzero" transform="translate(64 72)">
      <path d="M101.058559,61.0671171 L101.058559,66.1121622 C101.058559,68.2018882 99.3645009,69.8959459 97.2747748,69.8959459 L49.3468468,69.8959459 C47.2571208,69.8959459 45.5630631,68.2018882 45.5630631,66.1121622 L45.5630631,61.0671171 C45.5630631,58.977391 47.2571208,57.2833333 49.3468468,57.2833333 L97.2747748,57.2833333 C99.3645009,57.2833333 101.058559,58.977391 101.058559,61.0671171 L101.058559,61.0671171 Z" opacity=".4"/>
      <path d="M4.84009009,67.8968468 L1.26126126,64.3243243 C-0.212080952,62.8474095 -0.212080952,60.4566445 1.26126126,58.9797297 L25.5405405,34.5806306 L1.26126126,10.1846847 C-0.212080952,8.70776989 -0.212080952,6.31700489 1.26126126,4.84009009 L4.84009009,1.26126126 C6.31772927,-0.216279929 8.71335181,-0.216279929 10.190991,1.26126126 L40.8333333,31.9051802 C42.3108745,33.3828194 42.3108745,35.7784419 40.8333333,37.2560811 L10.190991,67.8968468 C8.71335181,69.374388 6.31772927,69.374388 4.84009009,67.8968468 L4.84009009,67.8968468 Z"/>
    </g>
    <g fill="#000" fill-rule="nonzero" transform="translate(110 181)">
      <path d="M224.464628,0 L47.3396277,0 C36.0658967,0.0326922533 26.9348664,9.15077083 26.9021277,20.4085106 L26.9021277,163.268085 L244.902128,163.268085 L244.902128,20.4085106 C244.869389,9.15077083 235.738359,0.0326922533 224.464628,0 Z M217.652128,136.056738 L54.1521277,136.056738 L54.1521277,27.2113475 L217.652128,27.2113475 L217.652128,136.056738 Z" opacity=".4"/>
      <path d="M265.913617,177.050456 L162.590836,177.050456 C162.275489,185.500565 156.322263,190.700304 148.638894,190.700304 L122.729362,190.700304 C114.764737,190.700304 108.666622,183.24834 108.764635,177.050456 L6.81829787,177.050456 C3.05265594,177.050456 0,180.106078 0,183.87538 L0,190.700304 C0.0444644923,205.759036 12.22908,217.955492 27.2731915,218 L245.458723,218 C260.502835,217.955492 272.68745,205.759036 272.731915,190.700304 L272.731915,183.87538 C272.731915,180.106078 269.679259,177.050456 265.913617,177.050456 L265.913617,177.050456 Z M218.185532,26.9021277 L54.546383,26.9021277 L54.546383,136.100912 L218.185532,136.100912 L218.185532,26.9021277 Z M123.155505,106.386899 L118.335821,111.211267 C117.057097,112.491526 115.322601,113.210792 113.514006,113.210792 C111.705411,113.210792 109.970915,112.491526 108.692191,111.211267 L83.8267109,86.3258879 C82.5476953,85.0459216 81.8291273,83.3097393 81.8291273,81.499387 C81.8291273,79.6890346 82.5476953,77.9528523 83.8267109,76.672886 L108.666622,51.7875068 C109.945346,50.5072483 111.679843,49.7879819 113.488437,49.7879819 C115.297032,49.7879819 117.031529,50.5072483 118.310252,51.7875068 L123.155505,56.611875 C124.434521,57.8918413 125.153089,59.6280236 125.153089,61.4383759 C125.153089,63.2487283 124.434521,64.9849106 123.155505,66.2648769 L107.920871,81.5015198 L123.155505,96.733897 C124.434521,98.0138633 125.153089,99.7500456 125.153089,101.560398 C125.153089,103.37075 124.434521,105.106933 123.155505,106.386899 Z M188.930773,86.3386847 L164.065293,111.215533 C162.786569,112.495791 161.052072,113.215058 159.243478,113.215058 C157.434883,113.215058 155.700386,112.495791 154.421662,111.215533 L149.57641,106.391165 C148.297394,105.111198 147.578826,103.375016 147.578826,101.564664 C147.578826,99.7543112 148.297394,98.0181289 149.57641,96.7381626 L164.811044,81.5015198 L149.57641,66.2691425 C148.297394,64.9891762 147.578826,63.2529939 147.578826,61.4426415 C147.578826,59.6322891 148.297394,57.8961069 149.57641,56.6161406 L154.396094,51.7917724 C155.674817,50.5115138 157.409314,49.7922475 159.217909,49.7922475 C161.026504,49.7922475 162.761,50.5115138 164.039724,51.7917724 L188.900943,76.6771516 C190.182221,77.9548536 190.903857,79.689765 190.907064,81.5001182 C190.91025,83.3104715 190.194746,85.0479256 188.917988,86.3301535 L188.930773,86.3386847 Z"/>
    </g>
    <g fill="#000" fill-rule="nonzero" transform="translate(272 52)">
      <path d="M85.5000001,75.15 C85.5000001,77.1106109 83.9050142,78.7 81.9374998,78.7 L74.8124998,78.7 C72.8449854,78.7 71.2499999,77.1106109 71.2499999,75.15 L71.2499999,71.6 L42.75,71.6 L42.75,75.15 C42.75,77.1106109 41.1550144,78.7 39.1875,78.7 L32.0625,78.7 C30.0949856,78.7 28.5000001,77.1106109 28.5000001,75.15 L28.5000001,71.6 L9.29764141e-08,71.6 L9.29764141e-08,92.9 C9.29764141e-08,96.8212217 3.18997124,100 7.12500007,100 L106.875,100 C110.810029,100 114,96.8212217 114,92.9 L114,71.6 L85.5000001,71.6 L85.5000001,75.15 Z M111.913711,41.1210313 L101.838515,31.0811876 C100.502448,29.7489354 98.6899083,29 96.7998045,29 L17.2001953,29 C15.3104111,29 13.4979162,29.7475303 12.1614844,31.0789688 L2.08628915,41.1210313 C0.750162427,42.4527739 0,44.2589092 0,46.1420626 L0,64.5 L28.5,64.5 L28.5,60.95 C28.5,58.9893892 30.0949856,57.4 32.0625,57.4 L39.1875,57.4 C41.1550144,57.4 42.75,58.9893892 42.75,60.95 L42.75,64.5 L71.2499999,64.5 L71.2499999,60.95 C71.2499999,58.9893892 72.8449854,57.4 74.8124998,57.4 L81.9374998,57.4 C83.9050142,57.4 85.5,58.9893892 85.5,60.95 L85.5,64.5 L114,64.5 L114,46.1398438 C114,44.2574592 113.249292,42.4522302 111.913711,41.1210313 Z" opacity=".4"/>
      <path d="M74.3125,0 L38.6875,0 C32.7849567,0 28,4.82311429 28,10.7727273 L28,28.7272727 L42.25,28.7272727 L42.25,14.3636364 L70.75,14.3636364 L70.75,28.7272727 L85,28.7272727 L85,10.7727273 C85,4.82311429 80.2150433,0 74.3125,0 Z M38.6875,57.4545455 L31.5625,57.4545455 C29.5949856,57.4545455 28,59.0622502 28,61.0454545 L28,75.4090909 C28,77.3922952 29.5949856,79 31.5625,79 L38.6875,79 C40.6550144,79 42.25,77.3922952 42.25,75.4090909 L42.25,61.0454545 C42.25,59.0622502 40.6550144,57.4545455 38.6875,57.4545455 Z M81.4375,57.4545455 L74.3125,57.4545455 C72.3449856,57.4545455 70.75,59.0622502 70.75,61.0454545 L70.75,75.4090909 C70.75,77.3922952 72.3449856,79 74.3125,79 L81.4375,79 C83.4050144,79 85,77.3922952 85,75.4090909 L85,61.0454545 C85,59.0622502 83.4050144,57.4545455 81.4375,57.4545455 Z"/>
    </g>
  </g>
</svg>
